src/assets/icons/weeks,fancy,19.svg

<svg width="48" height="48" viewBox="0 0 48 48" fill="none" xmlns="http://www.w3.org/2000/svg">
<rect opacity="0.2" x="4" y="6" width="40" height="40" rx="4" fill="black"/>
<path d="M18.4181 20.6364H14.3713L9.33008 23.8281V27.6463L13.9934 24.723H14.1127V41H18.4181V20.6364ZM30.6259 20.358C26.0719 20.3381 22.9995 23.321 23.0194 27.4176C23.0293 31.2159 25.6642 33.9702 29.2736 33.9702C31.5108 33.9702 33.4995 32.8864 34.4043 31.0966H34.5435C34.5336 35.1335 33.1316 37.5895 30.4767 37.5895C28.9157 37.5895 27.7921 36.7344 27.464 35.2528H23.2182C23.6159 38.6832 26.4 41.2784 30.4767 41.2784C35.5179 41.2784 38.7694 37.2017 38.7594 30.2912C38.7495 22.9134 34.812 20.3778 30.6259 20.358ZM30.6557 23.7386C32.6344 23.7386 34.0961 25.3494 34.1159 27.2884C34.1259 29.2372 32.5847 30.848 30.6159 30.848C28.6273 30.848 27.2054 29.2969 27.1955 27.2983C27.1756 25.3097 28.6571 23.7386 30.6557 23.7386Z" fill="black"/>
<g opacity="0.4">
<path d="M10 4C10 2.89543 10.8954 2 12 2C13.1046 2 14 2.89543 14 4V8C14 9.10457 13.1046 10 12 10C10.8954 10 10 9.10457 10 8V4Z" fill="black"/>
<path d="M34 4C34 2.89543 34.8954 2 36 2C37.1046 2 38 2.89543 38 4V8C38 9.10457 37.1046 10 36 10C34.8954 10 34 9.10457 34 8V4Z" fill="black"/>
</g>
<path fill-rule="evenodd" clip-rule="evenodd" d="M10 6.00869C7.52043 6.04456 6.11466 6.22849 5.17157 7.17157C4 8.34315 4 10.2288 4 14V16H44V14C44 10.2288 44 8.34315 42.8284 7.17157C41.8853 6.22849 40.4796 6.04456 38 6.00869V8C38 9.10457 37.1046 10 36 10C34.8954 10 34 9.10457 34 8V6H14V8C14 9.10457 13.1046 10 12 10C10.8954 10 10 9.10457 10 8V6.00869Z" fill="black"/>
</svg>

<svg xmlns="http://www.w3.org/2000/svg" width="48" height="48" fill="none" viewBox="0 0 48 48">
  <rect width="40" height="40" x="4" y="6" fill="#000" opacity=".2" rx="4"/>
  <path fill="#000" d="M18.418 20.636h-4.047l-5.04 3.192v3.818l4.662-2.923h.12V41h4.305V20.636zm12.208-.278c-4.554-.02-7.627 2.963-7.607 7.06.01 3.798 2.645 6.552 6.255 6.552 2.237 0 4.225-1.084 5.13-2.873h.14c-.01 4.036-1.412 6.492-4.067 6.492-1.561 0-2.685-.855-3.013-2.336h-4.246c.398 3.43 3.182 6.025 7.259 6.025 5.04 0 8.292-4.076 8.282-10.987-.01-7.378-3.947-9.913-8.133-9.933zm.03 3.38c1.978 0 3.44 1.611 3.46 3.55.01 1.95-1.531 3.56-3.5 3.56-1.989 0-3.41-1.551-3.42-3.55-.02-1.988 1.461-3.56 3.46-3.56z"/>
  <g opacity=".4">
    <path fill="#000" d="M10 4a2 2 0 114 0v4a2 2 0 11-4 0V4zM34 4a2 2 0 114 0v4a2 2 0 11-4 0V4z"/>
  </g>
  <path fill="#000" fill-rule="evenodd" d="M10 6.009c-2.48.036-3.885.22-4.828 1.163C4 8.343 4 10.229 4 14v2h40v-2c0-3.771 0-5.657-1.172-6.828-.943-.944-2.348-1.127-4.828-1.163V8a2 2 0 11-4 0V6H14v2a2 2 0 11-4 0V6.009z" clip-rule="evenodd"/>
</svg>
